Obsidian-SemiLight/actions/22s/step_object_Spring.svg

<svg viewBox="0 0 22 22" xmlns="http://www.w3.org/2000/svg"><path d="m5 4v1h7.892578l-5.892578 2h-2v1h8.644531l-6.7499998 3h-1.8945312v1h8.644531l-6.7499998 3h-1.8945312v1h7.892578l-5.892578 2h-2v1h13v-1h-7.892578l5.892578-2h2v-1h-8.6445312l6.7500002-3h1.894531v-1h-8.6445312l6.7500002-3h1.894531v-1h-7.892578l5.892578-2h2v-1z" fill="#4d4d4d"/></svg>

<svg xmlns="http://www.w3.org/2000/svg" viewBox="0 0 22 22">
  <defs id="defs3051">
    <style type="text/css" id="current-color-scheme">
      .ColorScheme-Text {
        color:#4d4d4d;
      }
      </style>
  </defs>
 <path 
     style="fill:currentColor;fill-opacity:1;stroke:none" 
     d="M 5 4 L 5 5 L 12.892578 5 L 7 7 L 5 7 L 5 8 L 13.644531 8 L 6.8945312 11 L 5 11 L 5 12 L 13.644531 12 L 6.8945312 15 L 5 15 L 5 16 L 12.892578 16 L 7 18 L 5 18 L 5 19 L 18 19 L 18 18 L 10.107422 18 L 16 16 L 18 16 L 18 15 L 9.3554688 15 L 16.105469 12 L 18 12 L 18 11 L 9.3554688 11 L 16.105469 8 L 18 8 L 18 7 L 10.107422 7 L 16 5 L 18 5 L 18 4 L 5 4 z "
	 class="ColorScheme-Text"
     />
</svg>
